static/assets/images/tokens/susds.svg

<svg width="256" height="256" viewBox="0 0 256 256" fill="none" xmlns="http://www.w3.org/2000/svg">
<path d="M128 256C198.692 256 256 198.692 256 128C256 57.3075 198.692 0 128 0C57.3075 0 0 57.3075 0 128C0 198.692 57.3075 256 128 256Z" fill="url(#paint0_radial_9885_1311)"/>
<path d="M79.0463 161.65H60.8303C62.3175 190.089 86.1092 214.81 128.303 214.81C170.31 214.81 197.075 191.762 197.075 162.022C197.075 105.517 111.76 108.677 111.76 75.9632C111.76 66.8552 118.637 56.0751 134.622 56.0751C152.466 56.0751 173.469 70.016 174.956 87.8591H192.986C191.127 59.0494 163.06 38.9749 127.373 38.9749C90.3843 38.9749 62.5039 60.5359 62.5039 91.0191C62.5039 149.197 147.819 141.576 147.819 177.449C147.819 188.602 140.941 197.895 123.655 197.895C102.094 197.895 80.3477 182.839 79.0463 161.65ZM94.2879 80.2382C94.2879 124.476 178.86 115.74 178.86 162.951C178.86 177.077 169.566 189.531 158.414 192.691C162.317 188.973 165.291 180.795 165.291 172.989C165.291 129.309 80.5335 135.257 80.5335 90.4612C80.5335 75.4061 90.1986 63.3245 102.28 59.6066C97.6337 65.1831 94.2879 72.4317 94.2879 80.2382Z" fill="white"/>
<defs>
<radialGradient id="paint0_radial_9885_1311" cx="0" cy="0" r="1" gradientUnits="userSpaceOnUse" gradientTransform="translate(128 398.721) rotate(-90) scale(398.724)">
<stop stop-color="#FFEF79"/>
<stop offset="1" stop-color="#00C2A1"/>
</radialGradient>
</defs>
</svg>

<svg xmlns="http://www.w3.org/2000/svg" fill="none" viewBox="0 0 256 256"><path fill="url(#paint0_radial_9885_1311)" d="M128 256c70.692 0 128-57.308 128-128S198.692 0 128 0 0 57.308 0 128s57.308 128 128 128"/><path fill="#fff" d="M79.046 161.65H60.83c1.488 28.439 25.28 53.16 67.473 53.16 42.007 0 68.772-23.048 68.772-52.788 0-56.505-85.315-53.345-85.315-86.059 0-9.108 6.877-19.888 22.862-19.888 17.844 0 38.847 13.941 40.334 31.784h18.03c-1.859-28.81-29.926-48.884-65.613-48.884-36.989 0-64.87 21.56-64.87 52.044 0 58.178 85.316 50.557 85.316 86.43 0 11.153-6.878 20.446-24.164 20.446-21.561 0-43.307-15.056-44.609-36.245m15.242-81.412c0 44.238 84.572 35.502 84.572 82.713 0 14.126-9.294 26.58-20.446 29.74 3.903-3.718 6.877-11.896 6.877-19.702 0-43.68-84.757-37.732-84.757-82.528 0-15.055 9.665-27.136 21.746-30.854-4.646 5.576-7.992 12.825-7.992 20.631"/><defs><radialGradient id="paint0_radial_9885_1311" cx="0" cy="0" r="1" gradientTransform="rotate(-90 263.36 135.36)scale(398.724)" gradientUnits="userSpaceOnUse"><stop stop-color="#FFEF79"/><stop offset="1" stop-color="#00C2A1"/></radialGradient></defs></svg>
